assets/icons/qvision/tram.svg

<svg xmlns="http://www.w3.org/2000/svg" height="24" viewBox="0 0 24 24" width="24"><path d="M0 0h24v24H0V0z" fill="none"/><path d="M19 16.94V8.5c0-2.79-2.61-3.4-6.01-3.49l.76-1.51H17V2H7v1.5h4.75l-.76 1.52C7.86 5.11 5 5.73 5 8.5v8.44c0 1.45 1.19 2.66 2.59 2.97L6 21.5v.5h2.23l2-2H14l2 2h2v-.5L16.5 20h-.08c1.69 0 2.58-1.37 2.58-3.06zm-7 1.56c-.83 0-1.5-.67-1.5-1.5s.67-1.5 1.5-1.5 1.5.67 1.5 1.5-.67 1.5-1.5 1.5zm5-4.5H7V9h10v5z"/></svg>

<svg width="24" height="24" viewBox="0 0 24 24" fill="none" xmlns="http://www.w3.org/2000/svg">
<g clip-path="url(#clip0_147_5665)">
<path d="M19 16.94V8.5C19 5.71 16.39 5.1 12.99 5.01L13.75 3.5H17V2H7V3.5H11.75L10.99 5.02C7.86 5.11 5 5.73 5 8.5V16.94C5 18.39 6.19 19.6 7.59 19.91L6 21.5V22H8.23L10.23 20H14L16 22H18V21.5L16.5 20H16.42C18.11 20 19 18.63 19 16.94ZM12 18.5C11.17 18.5 10.5 17.83 10.5 17C10.5 16.17 11.17 15.5 12 15.5C12.83 15.5 13.5 16.17 13.5 17C13.5 17.83 12.83 18.5 12 18.5ZM17 14H7V9H17V14Z" fill="#323232"/>
</g>
<defs>
<clipPath id="clip0_147_5665">
<rect width="24" height="24" fill="white"/>
</clipPath>
</defs>
</svg>
